X: 28198
T: Mrs. Campbell Of Shinness
R: jig
M: 6/8
K: Eminor
|:B2e efg|fae g2e|B2e efg|fge dBA|
Bee efg|fae g2f|ede e2d|efe dBA:|
|:BGB BdB|Bgf e2d|BGB d2B|efe dBA|
BGB BdB|Bgf efg|a3 g2f|efe dBA:|

